src/assets/images/comprehensive/insurance-plan/life-protection.svg

<?xml version="1.0" encoding="UTF-8"?>
<svg width="29px" height="27px" viewBox="0 0 29 27" version="1.1" xmlns="http://www.w3.org/2000/svg" xmlns:xlink="http://www.w3.org/1999/xlink">
    <!-- Generator: Sketch 59 (86127) - https://sketch.com -->
    <title>Icon/Insurance/Life Protection</title>
    <desc>Created with Sketch.</desc>
    <g id="Icon/Insurance/Life-Protection" stroke="none" stroke-width="1" fill="none" fill-rule="evenodd">
        <g id="Group-3" transform="translate(4.000000, 1.000000)" fill="#00A7A7" fill-rule="nonzero">
            <g id="security-on">
                <path d="M10.8537659,0 C13.7334052,2.79447701 17.1388135,4.0619023 21.5839315,4.0619023 C21.5839315,11.3393621 23.0927382,21.7641667 10.853691,25.9978333 C-1.3844578,21.764092 0.124423775,11.3392874 0.124423775,4.0619023 C4.56916742,4.0619023 7.97442604,2.79447701 10.8537659,0 Z M12.0594737,8.02533333 L9.94052632,8.02533333 L9.94052632,11.2493333 L6.72736842,11.2493333 L6.72736842,13.3466667 L9.94052632,13.3466667 L9.94052632,16.5706667 L12.0594737,16.5706667 L12.0594737,13.3466667 L15.2726316,13.3466667 L15.2726316,11.2493333 L12.0594737,11.2493333 L12.0594737,8.02533333 Z" id="Combined-Shape"></path>
            </g>
        </g>
    </g>
</svg>

<svg xmlns="http://www.w3.org/2000/svg" width="22" height="26" viewBox="0 0 22 26">
    <path fill="#00A7A7" fill-rule="nonzero" d="M21.584 4.062c0 7.277 1.509 17.702-10.73 21.936C-1.384 21.764.124 11.339.124 4.062c4.445 0 7.85-1.268 10.73-4.062 2.88 2.794 6.285 4.062 10.73 4.062zm-6.311 7.187h-3.214V8.025H9.941v3.224H6.727v2.098h3.214v3.224h2.118v-3.224h3.214v-2.098z"/>
</svg>
